!!!!SEGMENT: pl-wtm--r-1589--006_stefani-jozef--vesperae-de-apostolis-ad-magnificat.krn
!!!cenid: 18xx:2354
!!!COM: Stefani, Józef
!!!COM-rismID: pe30024097
!!!CDT: 1800/04/16-1876/03/19
!!!CNT: Polish
!!!OPR: Vesperae de Apostolis
!!!OTL: Ad Magnificat
!!!OMV: 006
!!!PDT:
!!!AGN: Sacred; Vespers
!!!SMS-siglum: PL-Wtm
!!!SMS-shelfmark: R 1589
!!!SMS-shelfwork: 001-006 M
!!!SMS-variant:
!!!SMS-altvar:
!!!NIFC-rismSourceID: 1001115607
!!!NIFC-islandoraID: pl-wtm:27337
!!!URL-pdf-islandora: https://repozytorium.nifc.pl/islandora/object/pl-wtm%3A27337/datastream/PDF/view
!!!URL-scan: https://polish.musicsources.pl/pl/lokalizacje/galeria/rekopisy/6383 @EN{Scan on Polish Music Sources Website} @PL{Skany w portalu Dziedzictwo Muzyki Polskiej w otwartym dostępie}
!!!ONB-nifc: UWAGA: części: 5 Antyfon (001-005) i Magnificat (006)
!!!OMD: Allegro
!!!AIN: 1 empty 2 tenor
!!!key:
**kern	**text	**dynam	**kern	**text	**dynam	**kern	**text	**dynam
*part3	*part3	*part3	*part2	*part2	*part2	*part1	*part1	*part1
*staff3	*staff3	*	*staff2	*staff2	*	*staff1	*staff1	*
*Iempty	*	*	*Itenor	*	*	*Itenor	*	*
*I"[Basso]	*	*	*I"[Tenore 2o]	*	*	*I"[Tenore 1o]	*	*
*clefF4	*	*	*clefC4	*	*	*clefC4	*	*
*k[b-e-]	*	*	*k[b-e-]	*	*	*k[b-e-]	*	*
*B-:	*	*	*B-:	*	*	*B-:	*	*
*M2/2	*	*	*M2/2	*	*	*M2/2	*	*
*met(c|)	*	*	*met(c|)	*	*	*met(c|)	*	*
=1	=1	=1	=1	=1	=1	=1	=1	=1
*all\right	*	*	*all\right	*	*	*all\right	*	*
*2\right	*	*	*2\right	*	*	*2\right	*	*
!	!	!LO:DY:rj	!	!	!	!	!	!LO:DY:rj
2F^\	Esto-	f	2A\	.	.	2f^\	Esto-	f
2G^\	-te	.	2B-\	.	.	2d^\	-te	.
=2	=2	=2	=2	=2	=2	=2	=2	=2
2C^>/	for-	.	2G/	.	.	2e-^\	for-	.
4.F^\	-tes	.	4.A\	.	.	4.c^\	-tes	.
8F\	in	.	8A\	.	.	8c\	in	.
=3	=3	=3	=3	=3	=3	=3	=3	=3
1BB-	bel-	.	1B-	.	.	1d	bel-	.
=4	=4	=4	=4	=4	=4	=4	=4	=4
2BB-/	-lo,	.	2B-\	.	.	2d\	-lo,	.
4B-\	et	.	4B-\	.	.	4B-\	et	.
4B-\	pu-	.	4B-\	.	.	4B-\	pu-	.
=5	=5	=5	=5	=5	=5	=5	=5	=5
2G^\	-gna-	.	2B-\	.	.	2e-^\	-gna-	.
4F\	-te	.	4B-\	.	.	4d\	-te	.
4B-\	an-	.	4B-\	.	.	4B-\	an-	.
!!LO:LB:g=original
=6	=6	=6	=6	=6	=6	=6	=6	=6
2E-\	-ti-	.	2B-\	.	.	2g^\	-ti-	.
4D\	-quo	.	4B-\	.	.	4f\	-quo	.
4C/	ser-	.	(8G/L	.	.	8f\L	ser-	.
.	.	.	8A/J)	.	.	8e-\J	.	.
=7	=7	=7	=7	=7	=7	=7	=7	=7
(2BB-/	-pen-	<	1B-	.	.	(2d\	-pen-	<
2G-X\)	.	[ > ]]	.	.	.	2B-\)	.	[ > ]]
=8	=8	=8	=8	=8	=8	=8	=8	=8
2.F;\	-te:	.	2.A;\	.	.	2.c;\	-te:	.
4F\	et	p	4A\	.	.	4c\	et	p
=9	=9	=9	=9	=9	=9	=9	=9	=9
4.F\	ac-	.	4.A\	.	.	4.c\	ac-	.
8F\	-ci-	.	8A\	.	.	8c\	-ci-	.
4F\	-pic-	.	4A\	.	.	4f\	-pi-	.
4F\	-tis	.	4c\	.	.	4en\	-tis	.
=10	=10	=10	=10	=10	=10	=10	=10	=10
2F\	reg-	.	2B-\	.	.	2d\	reg-	.
4F\	-num	.	4A\	.	.	4c\	-num	.
!	!	!	!	!	!	!LO:TX:t=P:problem=wykreślonych 10 taktów	!	!
4F\	e	.	4A\	.	.	4c\	e	.
!!LO:PB:g=original
=11	=11	=11	=11	=11	=11	=11	=11	=11
*	*	*	*^	*	*	*	*	*
2F\	num	.	2F/	2ryy	.	.	2A\	num	.
!	!	!LO:DY:rj	!	!	!	!	!	!	!LO:DY:rj
2D\	re-	f	2A/	2F\	.	.	2f\	re-	f
=12	=12	=12	=12	=12	=12	=12	=12	=12	=12
*^	*	*	*	*	*	*	*	*	*
4D/	4BB-\	-gnum	.	4G/	4F\	.	.	4G/	-gnum	.
4D/	4BB-\	ae-	.	4G/	4F\	.	.	4G/	ae-	.
2C/	2C\	-ter-	.	2G/	(>4F\	.	.	2c\	-ter-	.
.	.	.	.	.	4En\)	.	.	.	.	.
*v	*v	*	*	*	*	*	*	*	*	*
*	*	*	*v	*v	*	*	*	*	*
=13	=13	=13	=13	=13	=13	=13	=13	=13
2F\	-num	.	2F/	.	.	2F/	-num	.
2r	.	.	2F/	al-	.	2r	.	.
=14	=14	=14	=14	=14	=14	=14	=14	=14
1r	.	.	2G/	-le-	.	1r	.	.
.	.	.	2A/	-lu-	.	.	.	.
=15	=15	=15	=15	=15	=15	=15	=15	=15
1r	.	.	2B-\	-ja	.	2r	.	.
.	.	.	2B-\	al-	.	2B-\	al-	.
!!LO:LB:g=original
=16	=16	=16	=16	=16	=16	=16	=16	=16
1r	.	.	2B-\	-le-	.	2c\	-le-	.
.	.	.	(4A\	-lu-	.	(4c\	-lu-	.
.	.	.	8B-\L	.	.	8d\L	.	.
.	.	.	8c\J)	.	.	8e-\J)	.	.
=17	=17	=17	=17	=17	=17	=17	=17	=17
2r	.	.	2B-\	-ja	.	2d\	-ja	.
2D\	al-	.	2B-\	Al-	.	2f\	Al-	.
=18	=18	=18	=18	=18	=18	=18	=18	=18
2E-\	-le-	.	2B-\	-le-	.	2g\	-le-	.
2F\	-lu-	.	2A\	-lu-	.	(4f\	-lu-	.
.	.	.	.	.	.	4e-\)	.	.
=19	=19	=19	=19	=19	=19	=19	=19	=19
2G\	-ja	.	2B-\	-ja	.	2d\	-ja	.
(4C/	al-	.	2G/	al-	.	(4e-\	Al-	.
4E-/)	.	.	.	.	.	4c\)	.	.
=20	=20	=20	=20	=20	=20	=20	=20	=20
2F\	-le-	.	2.B-\	-le-	.	2d\	-le-	.
2F\	-lu	.	.	.	.	(4c\	-lu-	.
!	!	!	!	!	!	!LO:TX:a:t=vi x	!	!
!	!	!	!	!	!	!LO:TX:t=P:problem=wykreślonych 7 taktów	!	!
.	.	.	4A\	-lu	.	4f\)	.	.
!!LO:LB:g=original
=21	=21	=21	=21	=21	=21	=21	=21	=21
!!!OMD: piu Allegro
!	!	!	!	!	!	!LO:TX:a:t=de x	!	!
4BB-/	.	.	4B-\	.	.	4d\	-ja	.
4r	.	.	4r	.	.	4r	.	.
!	!	!LO:DY:rj:t=p	!	!	!	!	!	!LO:DY:rj
2D\	.	p	2B-\	.	.	2f\	al-	p
=22	=22	=22	=22	=22	=22	=22	=22	=22
2C\	.	.	2G/	.	.	(4f\	-le-	.
.	.	.	.	.	.	4e-\)	.	.
2F\	.	.	(4B-\	.	.	(4d\	-lu-	.
.	.	.	4A\)	.	.	4c\)	.	.
=23	=23	=23	=23	=23	=23	=23	=23	=23
2BB-/	.	.	2B-\	.	.	2d\	-ja	.
!	!	!LO:DY:rj	!	!	!	!	!	!LO:DY:rj
2G^\	.	f	2B-\	.	.	2d^\	al-	f
=24	=24	=24	=24	=24	=24	=24	=24	=24
2C^\	.	.	2G/	.	.	2e-^\	-le-	.
2F^\	.	.	2A/	.	.	2c^\	-lu-	.
=25	=25	=25	=25	=25	=25	=25	=25	=25
4BB-/	.	.	4B-\	.	.	4d\	-ja	.
4r	.	.	4r	.	.	4r	.	.
!	!	!LO:DY:rj	!	!	!	!	!	!LO:DY:rj
2D\	.	p	2B-\	.	.	2f\	al-	p
!!LO:PB:g=original
=26	=26	=26	=26	=26	=26	=26	=26	=26
2C\	.	.	2G/	.	.	(4f\	-le-	.
.	.	.	.	.	.	4e-\)	.	.
2F\	.	.	(4B-\	.	.	(4d\	-lu-	.
.	.	.	4A\)	.	.	4c\)	.	.
=27	=27	=27	=27	=27	=27	=27	=27	=27
2BB-/	.	.	2B-\	.	.	2d\	-ja	.
!	!	!LO:DY:rj	!	!	!	!	!	!LO:DY:rj
2G^\	.	f	2B-\	.	.	2d^\	al-	f
=28	=28	=28	=28	=28	=28	=28	=28	=28
2E-^\	.	.	2B-\	.	.	2g^\	-le-	.
2F^\	.	.	2A\	.	.	2f^\	-lu-	.
=29	=29	=29	=29	=29	=29	=29	=29	=29
4B-\	.	.	4B-\	.	.	4B-\	-ja	.
4r	.	.	4r	.	.	4r	.	.
!	!	!LO:DY:rj	!	!	!	!	!	!LO:DY:rj
2B-\	.	p	2B-\	.	.	2B-\	al-	p <
=30	=30	=30	=30	=30	=30	=30	=30	=30
!	!	!LO:HP:t=cresc	!	!	!	!	!	!
1G	.	<	1B-	.	.	1e-	-le-	.
=31	=31	=31	=31	=31	=31	=31	=31	=31
1E-	.	.	1e- 1B-	.	.	1g	-lu-	[[
!!LO:LB:g=original
=32	=32	=32	=32	=32	=32	=32	=32	=32
!	!	!LO:DY:rj	!	!	!	!	!	!LO:DY:rj
[>1BB-	.	f	[1d [>1B-	.	.	[1f	-ja	f
=33	=33	=33	=33	=33	=33	=33	=33	=33
!LO:TX:a:t=Finis	!	!	!	!	!	!	!	!
1BB-]	.	.	1d] 1B-]	.	.	1f]	.	.
==	==	==	==	==	==	==	==	==
*-	*-	*-	*-	*-	*-	*-	*-	*-
!!!system-decoration: {s1,s2,s3}
!!!RDF**kern: > = above
!!!RDF**dynam: p = "p."
!!!ENC: Marta Lawrence
!!!END: 2021-06-14
!!!ENC: Andrzej Gręziak
!!!END: 2021-06-04
